_site/images/homepage/source-code-escrow.svg

<svg fill="none" height="80" viewBox="0 0 80 80" width="80" xmlns="http://www.w3.org/2000/svg"><rect fill="#00769d" height="80" rx="25" width="80"/><path clip-rule="evenodd" d="m44.2424 33.1029c.5624-2.8615 3.0385-4.9226 5.9159-4.9245 2.9326.0547 5.4019 2.2388 5.8535 5.1774s-1.2453 5.7811-4.0224 6.7379c-.7966 3.7605-4.0743 6.4466-7.8675 6.4474h-8.0485c-1.6197.0047-3.0788.9937-3.7023 2.5095 2.6874 1.125 4.2021 4.0327 3.6037 6.9177-.5985 2.885-3.1402 4.9275-6.0469 4.8593-2.9066-.0682-5.3524-2.2278-5.8186-5.1378s1.1796-5.7435 3.9155-6.7412v-17.0569c-2.7718-.9937-4.4345-3.8677-3.9373-6.8059.4972-2.9381 3.0095-5.0858 5.9495-5.0858 2.9399 0 5.4523 2.1477 5.9495 5.0858.4971 2.9382-1.1656 5.8122-3.9374 6.8059v11.7113c1.2153-.7417 2.6058-1.1365 4.0243-1.1425h8.0485c1.6271.0034 3.0961-.987 3.7225-2.5096-2.6569-1.1204-4.1644-3.9866-3.602-6.848zm-12.1925-6.964c0-1.1268-.9009-2.0403-2.0121-2.0403-1.1113 0-2.0122.9135-2.0122 2.0403 0 1.1269.9009 2.0403 2.0122 2.0403 1.1112 0 2.0121-.9134 2.0121-2.0403zm-2.0121 30.6053c-1.1113 0-2.0122-.9135-2.0122-2.0403 0-1.1269.9009-2.0403 2.0122-2.0403 1.1112 0 2.0121.9134 2.0121 2.0403 0 1.1268-.9009 2.0403-2.0121 2.0403zm18.1088-22.4432c0 1.1269.9009 2.0403 2.0122 2.0403 1.1112 0 2.0121-.9134 2.0121-2.0403 0-1.1268-.9009-2.0403-2.0121-2.0403-1.1113 0-2.0122.9135-2.0122 2.0403z" fill="#fff" fill-rule="evenodd"/></svg>

<svg width="80" height="80" viewBox="0 0 80 80" fill="none" xmlns="http://www.w3.org/2000/svg">
<rect width="80" height="80" rx="25" fill="#00769D"/>
<path fill-rule="evenodd" clip-rule="evenodd" d="M44.2424 33.1029C44.8048 30.2414 47.2809 28.1803 50.1583 28.1784C53.0909 28.2331 55.5602 30.4172 56.0118 33.3558C56.4634 36.2944 54.7665 39.1369 51.9894 40.0937C51.1928 43.8542 47.9151 46.5403 44.1219 46.5411H36.0734C34.4537 46.5458 32.9946 47.5348 32.3711 49.0506C35.0585 50.1756 36.5732 53.0833 35.9748 55.9683C35.3763 58.8533 32.8346 60.8958 29.9279 60.8276C27.0213 60.7594 24.5755 58.5998 24.1093 55.6898C23.6431 52.7798 25.2889 49.9463 28.0248 48.9486V31.8917C25.253 30.898 23.5903 28.024 24.0875 25.0858C24.5847 22.1477 27.097 20 30.037 20C32.9769 20 35.4893 22.1477 35.9865 25.0858C36.4836 28.024 34.8209 30.898 32.0491 31.8917V43.603C33.2644 42.8613 34.6549 42.4665 36.0734 42.4605H44.1219C45.749 42.4639 47.218 41.4735 47.8444 39.9509C45.1875 38.8305 43.68 35.9643 44.2424 33.1029ZM32.0499 26.1389C32.0499 25.0121 31.149 24.0986 30.0378 24.0986C28.9265 24.0986 28.0256 25.0121 28.0256 26.1389C28.0256 27.2658 28.9265 28.1792 30.0378 28.1792C31.149 28.1792 32.0499 27.2658 32.0499 26.1389ZM30.0378 56.7442C28.9265 56.7442 28.0256 55.8307 28.0256 54.7039C28.0256 53.577 28.9265 52.6636 30.0378 52.6636C31.149 52.6636 32.0499 53.577 32.0499 54.7039C32.0499 55.8307 31.149 56.7442 30.0378 56.7442ZM48.1466 34.301C48.1466 35.4279 49.0475 36.3413 50.1588 36.3413C51.27 36.3413 52.1709 35.4279 52.1709 34.301C52.1709 33.1742 51.27 32.2607 50.1588 32.2607C49.0475 32.2607 48.1466 33.1742 48.1466 34.301Z" fill="white"/>
</svg>
